astica/scalable/apps/libreoffice-draw.svg

<?xml version="1.0" encoding="UTF-8" standalone="no"?>
<!-- Created with Inkscape (http://www.inkscape.org/) -->

<svg
   width="64"
   height="64"
   viewBox="0 0 16.933333 16.933333"
   version="1.1"
   id="svg5"
   inkscape:version="1.1.1 (3bf5ae0d25, 2021-09-20, custom)"
   sodipodi:docname="libreoffice-draw.svg"
   xmlns:inkscape="http://www.inkscape.org/namespaces/inkscape"
   xmlns:sodipodi="http://sodipodi.sourceforge.net/DTD/sodipodi-0.dtd"
   xmlns:xlink="http://www.w3.org/1999/xlink"
   xmlns="http://www.w3.org/2000/svg"
   xmlns:svg="http://www.w3.org/2000/svg">
  <sodipodi:namedview
     id="namedview7"
     pagecolor="#ffffff"
     bordercolor="#666666"
     borderopacity="1.0"
     inkscape:pageshadow="2"
     inkscape:pageopacity="0.0"
     inkscape:pagecheckerboard="0"
     inkscape:document-units="px"
     showgrid="false"
     units="px"
     height="48px"
     inkscape:zoom="2.8284271"
     inkscape:cx="34.294679"
     inkscape:cy="96.166523"
     inkscape:window-width="1920"
     inkscape:window-height="1019"
     inkscape:window-x="0"
     inkscape:window-y="0"
     inkscape:window-maximized="1"
     inkscape:current-layer="svg5"
     inkscape:lockguides="true"
     showguides="false" />
  <defs
     id="defs2">
    <linearGradient
       inkscape:collect="always"
       id="linearGradient5034">
      <stop
         style="stop-color:#ffbd04;stop-opacity:1"
         offset="0"
         id="stop5030" />
      <stop
         style="stop-color:#ec4a00;stop-opacity:1"
         offset="1"
         id="stop5032" />
    </linearGradient>
    <linearGradient
       inkscape:collect="always"
       id="linearGradient4021">
      <stop
         style="stop-color:#ffb81b;stop-opacity:1;"
         offset="0"
         id="stop4017" />
      <stop
         style="stop-color:#ffda64;stop-opacity:1"
         offset="1"
         id="stop4019" />
    </linearGradient>
    <linearGradient
       inkscape:collect="always"
       id="linearGradient1254">
      <stop
         style="stop-color:#ff7b3d;stop-opacity:1;"
         offset="0"
         id="stop1250" />
      <stop
         style="stop-color:#ff4e4e;stop-opacity:1"
         offset="1"
         id="stop1252" />
    </linearGradient>
    <linearGradient
       inkscape:collect="always"
       id="linearGradient1721">
      <stop
         style="stop-color:#ff790c;stop-opacity:1"
         offset="0"
         id="stop1717" />
      <stop
         style="stop-color:#f6cc47;stop-opacity:1"
         offset="1"
         id="stop1719" />
    </linearGradient>
    <linearGradient
       inkscape:collect="always"
       xlink:href="#linearGradient1254"
       id="linearGradient1256"
       x1="5.2916665"
       y1="10.054167"
       x2="5.2916665"
       y2="5.8208332"
       gradientUnits="userSpaceOnUse"
       gradientTransform="matrix(1.1875,0,0,1.1875,-0.7937508,-1.8851571)" />
    <linearGradient
       inkscape:collect="always"
       xlink:href="#linearGradient4021"
       id="linearGradient4023"
       x1="10.476977"
       y1="13.071889"
       x2="10.47876"
       y2="9.771842"
       gradientUnits="userSpaceOnUse"
       gradientTransform="matrix(0.96675723,0,0,1.4486049,-0.69360945,-7.0117896)" />
    <linearGradient
       inkscape:collect="always"
       xlink:href="#linearGradient5034"
       id="linearGradient5036"
       x1="9.8094759"
       y1="7.937499"
       x2="9.8094759"
       y2="12.799301"
       gradientUnits="userSpaceOnUse"
       gradientTransform="matrix(1.1307127,0,0,1.3060999,-0.24378213,-3.7525842)" />
    <linearGradient
       inkscape:collect="always"
       xlink:href="#linearGradient37218"
       id="linearGradient1781"
       x1="2.8346456e-08"
       y1="2.2677165e-07"
       x2="64"
       y2="64"
       gradientUnits="userSpaceOnUse"
       gradientTransform="scale(0.26458333)" />
    <linearGradient
       inkscape:collect="always"
       id="linearGradient37218">
      <stop
         style="stop-color:#ffffff;stop-opacity:1"
         offset="0"
         id="stop37214" />
      <stop
         style="stop-color:#717171;stop-opacity:0.00392157"
         offset="0.49741825"
         id="stop37220" />
      <stop
         style="stop-color:#000000;stop-opacity:1"
         offset="1"
         id="stop37216" />
    </linearGradient>
    <linearGradient
       inkscape:collect="always"
       xlink:href="#linearGradient1721"
       id="linearGradient1264"
       x1="16.158318"
       y1="16.643452"
       x2="16.158318"
       y2="-0.28988102"
       gradientUnits="userSpaceOnUse"
       gradientTransform="translate(0.24584958,0.28988126)" />
  </defs>
  <rect
     style="opacity:1;fill:url(#linearGradient1264);fill-opacity:1;stroke-width:0.264583"
     id="rect1088"
     width="14.816667"
     height="14.816667"
     x="1.0583333"
     y="1.0583333"
     ry="2.1166666" />
  <path
     id="rect849"
     style="fill:#ffffff;stroke-width:1.67303;stroke-linejoin:round"
     d="M 3.1749999,2.6458333 H 11.377083 L 14.2875,5.5562499 v 8.2020831 c 0,0.293158 -0.236009,0.529167 -0.529167,0.529167 H 3.1749999 c -0.2931583,0 -0.5291666,-0.236009 -0.5291666,-0.529167 V 3.1749999 c 0,-0.2931583 0.2360083,-0.5291666 0.5291666,-0.5291666 z"
     sodipodi:nodetypes="sccssssss" />
  <circle
     style="opacity:1;fill:url(#linearGradient1256);fill-opacity:1;stroke-width:0.553786;stroke-linejoin:round"
     id="path968"
     cx="6.7468748"
     cy="7.5406251"
     r="2.5135417" />
  <rect
     style="opacity:1;fill:url(#linearGradient5036);fill-opacity:1;stroke:none;stroke-width:0.643068;stroke-linejoin:round"
     id="rect5028"
     width="4.2333331"
     height="4.2333331"
     x="8.7312489"
     y="6.614583" />
  <path
     id="rect3795"
     style="opacity:1;fill:url(#linearGradient4023);stroke-width:0.626219;stroke-linejoin:round"
     d="m 7.6729168,7.143749 2.6458332,4.7625 H 5.0270828 Z"
     sodipodi:nodetypes="cccc" />
  <path
     id="rect3074"
     style="opacity:0.75;fill:#18a303;fill-opacity:1;stroke-width:0.351888;stroke-linejoin:round"
     d="M 7.1437498,6.6145827 V 7.6729161 H 8.2020831 V 6.6145827 Z M 7.4083331,6.8791661 H 7.9374998 V 7.4083327 H 7.4083331 Z" />
  <rect
     style="opacity:0.75;fill:#92e285;fill-opacity:1;stroke-width:0.461248;stroke-linejoin:round"
     id="rect3258"
     width="0.52916664"
     height="0.52916664"
     x="7.4083323"
     y="6.8791666" />
  <path
     id="rect3074-3"
     style="opacity:0.75;fill:#18a303;fill-opacity:1;stroke-width:0.351888;stroke-linejoin:round"
     d="m 4.4979165,11.377083 v 1.058334 h 1.0583333 v -1.058334 z m 0.2645833,0.264584 h 0.5291667 v 0.529166 H 4.7624998 Z" />
  <rect
     style="opacity:0.75;fill:#92e285;fill-opacity:1;stroke-width:0.461248;stroke-linejoin:round"
     id="rect3258-6"
     width="0.52916664"
     height="0.52916664"
     x="4.7624989"
     y="11.641666" />
  <path
     id="rect3074-3-7"
     style="opacity:0.75;fill:#18a303;fill-opacity:1;stroke-width:0.351888;stroke-linejoin:round"
     d="m 9.7895836,11.377083 v 1.058334 h 1.0583344 v -1.058334 z m 0.2645834,0.264584 h 0.529167 v 0.529166 h -0.529167 z" />
  <rect
     style="opacity:0.75;fill:#92e285;fill-opacity:1;stroke-width:0.461248;stroke-linejoin:round"
     id="rect3258-6-5"
     width="0.52916664"
     height="0.52916664"
     x="10.054163"
     y="11.641666" />
  <path
     id="rect1345"
     style="opacity:0.3;fill:url(#linearGradient1781);fill-opacity:1;stroke-width:0.264583"
     d="m 3.1749993,1.0583333 c -1.172633,0 -2.116666,0.944034 -2.116666,2.116667 V 13.758333 c 0,1.172634 0.944033,2.116667 2.116666,2.116667 H 13.758334 c 1.172632,0 2.116666,-0.944033 2.116666,-2.116667 V 3.1750003 c 0,-1.172633 -0.944034,-2.116667 -2.116666,-2.116667 z m 0,0.264584 H 13.758334 c 1.026054,0 1.852083,0.826029 1.852083,1.852083 V 13.758333 c 0,1.026054 -0.826029,1.852084 -1.852083,1.852084 H 3.1749993 c -1.026054,0 -1.852083,-0.82603 -1.852083,-1.852084 V 3.1750003 c 0,-1.026054 0.826029,-1.852083 1.852083,-1.852083 z" />
</svg>

<?xml version="1.0" encoding="UTF-8" standalone="no"?>
<!-- Created with Inkscape (http://www.inkscape.org/) -->

<svg
   width="64"
   height="64"
   viewBox="0 0 16.933333 16.933333"
   version="1.1"
   id="svg5"
   inkscape:version="1.2 (dc2aedaf03, 2022-05-15)"
   sodipodi:docname="libreoffice-draw.svg"
   xmlns:inkscape="http://www.inkscape.org/namespaces/inkscape"
   xmlns:sodipodi="http://sodipodi.sourceforge.net/DTD/sodipodi-0.dtd"
   xmlns:xlink="http://www.w3.org/1999/xlink"
   xmlns="http://www.w3.org/2000/svg"
   xmlns:svg="http://www.w3.org/2000/svg">
  <sodipodi:namedview
     id="namedview7"
     pagecolor="#ffffff"
     bordercolor="#666666"
     borderopacity="1.0"
     inkscape:pageshadow="2"
     inkscape:pageopacity="0.0"
     inkscape:pagecheckerboard="0"
     inkscape:document-units="px"
     showgrid="false"
     units="px"
     height="48px"
     inkscape:zoom="13.53125"
     inkscape:cx="32"
     inkscape:cy="32.036952"
     inkscape:window-width="1409"
     inkscape:window-height="913"
     inkscape:window-x="126"
     inkscape:window-y="127"
     inkscape:window-maximized="0"
     inkscape:current-layer="svg5"
     inkscape:lockguides="true"
     showguides="false"
     inkscape:showpageshadow="2"
     inkscape:deskcolor="#d1d1d1" />
  <defs
     id="defs2">
    <linearGradient
       inkscape:collect="always"
       id="linearGradient5034">
      <stop
         style="stop-color:#ffbd04;stop-opacity:1"
         offset="0"
         id="stop5030" />
      <stop
         style="stop-color:#ec4a00;stop-opacity:1"
         offset="1"
         id="stop5032" />
    </linearGradient>
    <linearGradient
       inkscape:collect="always"
       id="linearGradient4021">
      <stop
         style="stop-color:#ffb81b;stop-opacity:1;"
         offset="0"
         id="stop4017" />
      <stop
         style="stop-color:#ffda64;stop-opacity:1"
         offset="1"
         id="stop4019" />
    </linearGradient>
    <linearGradient
       inkscape:collect="always"
       id="linearGradient1254">
      <stop
         style="stop-color:#ff7b3d;stop-opacity:1;"
         offset="0"
         id="stop1250" />
      <stop
         style="stop-color:#ff4e4e;stop-opacity:1"
         offset="1"
         id="stop1252" />
    </linearGradient>
    <linearGradient
       inkscape:collect="always"
       id="linearGradient1721">
      <stop
         style="stop-color:#ff790c;stop-opacity:1"
         offset="0"
         id="stop1717" />
      <stop
         style="stop-color:#f6cc47;stop-opacity:1"
         offset="1"
         id="stop1719" />
    </linearGradient>
    <linearGradient
       inkscape:collect="always"
       xlink:href="#linearGradient1254"
       id="linearGradient1256"
       x1="5.2916665"
       y1="10.054167"
       x2="5.2916665"
       y2="5.8208332"
       gradientUnits="userSpaceOnUse"
       gradientTransform="matrix(1.1875,0,0,1.1875,-0.7937508,-1.8851571)" />
    <linearGradient
       inkscape:collect="always"
       xlink:href="#linearGradient4021"
       id="linearGradient4023"
       x1="10.476977"
       y1="13.071889"
       x2="10.47876"
       y2="9.771842"
       gradientUnits="userSpaceOnUse"
       gradientTransform="matrix(0.96675723,0,0,1.4486049,-0.69360945,-7.0117896)" />
    <linearGradient
       inkscape:collect="always"
       xlink:href="#linearGradient5034"
       id="linearGradient5036"
       x1="9.8094759"
       y1="7.937499"
       x2="9.8094759"
       y2="12.799301"
       gradientUnits="userSpaceOnUse"
       gradientTransform="matrix(1.1307127,0,0,1.3060999,-0.24378213,-3.7525842)" />
    <linearGradient
       inkscape:collect="always"
       xlink:href="#linearGradient37218"
       id="linearGradient1781"
       x1="2.8346456e-08"
       y1="2.2677165e-07"
       x2="64"
       y2="64"
       gradientUnits="userSpaceOnUse"
       gradientTransform="scale(0.26458333)" />
    <linearGradient
       inkscape:collect="always"
       id="linearGradient37218">
      <stop
         style="stop-color:#ffffff;stop-opacity:1"
         offset="0"
         id="stop37214" />
      <stop
         style="stop-color:#717171;stop-opacity:0.00392157"
         offset="0.49741825"
         id="stop37220" />
      <stop
         style="stop-color:#000000;stop-opacity:1"
         offset="1"
         id="stop37216" />
    </linearGradient>
    <linearGradient
       inkscape:collect="always"
       xlink:href="#linearGradient1721"
       id="linearGradient1264"
       x1="16.158318"
       y1="16.643452"
       x2="16.158318"
       y2="-0.28988102"
       gradientUnits="userSpaceOnUse"
       gradientTransform="translate(0.24584958,0.28988126)" />
  </defs>
  <rect
     style="opacity:1;fill:url(#linearGradient1264);fill-opacity:1;stroke-width:0.264583"
     id="rect1088"
     width="14.816667"
     height="14.816667"
     x="1.0583333"
     y="1.0583333"
     ry="2.1166666" />
  <path
     id="rect849"
     style="fill:#ffffff;stroke-width:1.67303;stroke-linejoin:round"
     d="M 3.1749999,2.6458333 H 11.377083 L 14.2875,5.5562499 v 8.2020831 c 0,0.293158 -0.236009,0.529167 -0.529167,0.529167 H 3.1749999 c -0.2931583,0 -0.5291666,-0.236009 -0.5291666,-0.529167 V 3.1749999 c 0,-0.2931583 0.2360083,-0.5291666 0.5291666,-0.5291666 z"
     sodipodi:nodetypes="sccssssss" />
  <circle
     style="opacity:1;fill:url(#linearGradient1256);fill-opacity:1;stroke-width:0.553786;stroke-linejoin:round"
     id="path968"
     cx="6.7468748"
     cy="7.5406251"
     r="2.5135417" />
  <rect
     style="opacity:1;fill:url(#linearGradient5036);fill-opacity:1;stroke:none;stroke-width:0.643068;stroke-linejoin:round"
     id="rect5028"
     width="4.2333331"
     height="4.2333331"
     x="8.7312489"
     y="6.614583" />
  <path
     id="rect3795"
     style="opacity:1;fill:url(#linearGradient4023);stroke-width:0.626219;stroke-linejoin:round"
     d="m 7.6729168,7.143749 2.6458332,4.7625 H 5.0270828 Z"
     sodipodi:nodetypes="cccc" />
  <path
     id="rect3074"
     style="opacity:0.75;fill:#18a303;fill-opacity:1;stroke-width:0.351888;stroke-linejoin:round"
     d="M 7.1437499 6.6145832 L 7.1437499 7.6729165 L 8.2020832 7.6729165 L 8.2020832 6.6145832 L 7.1437499 6.6145832 z M 7.4083332 6.8791665 L 7.9374998 6.8791665 L 7.9374998 7.4083332 L 7.4083332 7.4083332 L 7.4083332 6.8791665 z M 4.4979166 11.377083 L 4.4979166 12.435416 L 5.5562499 12.435416 L 5.5562499 11.377083 L 4.4979166 11.377083 z M 9.7895831 11.377083 L 9.7895831 12.435416 L 10.847916 12.435416 L 10.847916 11.377083 L 9.7895831 11.377083 z M 4.7624999 11.641666 L 5.2916666 11.641666 L 5.2916666 12.170833 L 4.7624999 12.170833 L 4.7624999 11.641666 z M 10.054166 11.641666 L 10.583333 11.641666 L 10.583333 12.170833 L 10.054166 12.170833 L 10.054166 11.641666 z " />
  <path
     id="rect3258"
     style="opacity:0.75;fill:#92e285;fill-opacity:1;stroke-width:0.461248;stroke-linejoin:round"
     d="M 7.4083332 6.8791665 L 7.4083332 7.4083332 L 7.9374998 7.4083332 L 7.9374998 6.8791665 L 7.4083332 6.8791665 z M 4.7624999 11.641666 L 4.7624999 12.170833 L 5.2916666 12.170833 L 5.2916666 11.641666 L 4.7624999 11.641666 z M 10.054166 11.641666 L 10.054166 12.170833 L 10.583333 12.170833 L 10.583333 11.641666 L 10.054166 11.641666 z " />
  <path
     id="rect1345"
     style="opacity:0.3;fill:url(#linearGradient1781);fill-opacity:1;stroke-width:0.264583"
     d="m 3.1749993,1.0583333 c -1.172633,0 -2.116666,0.944034 -2.116666,2.116667 V 13.758333 c 0,1.172634 0.944033,2.116667 2.116666,2.116667 H 13.758334 c 1.172632,0 2.116666,-0.944033 2.116666,-2.116667 V 3.1750003 c 0,-1.172633 -0.944034,-2.116667 -2.116666,-2.116667 z m 0,0.264584 H 13.758334 c 1.026054,0 1.852083,0.826029 1.852083,1.852083 V 13.758333 c 0,1.026054 -0.826029,1.852084 -1.852083,1.852084 H 3.1749993 c -1.026054,0 -1.852083,-0.82603 -1.852083,-1.852084 V 3.1750003 c 0,-1.026054 0.826029,-1.852083 1.852083,-1.852083 z" />
</svg>
